X: 3
T: Lost And Found
R: jig
M: 6/8
L: 1/8
K: Gmaj
|:~G3 d3|edB dBA|~G3 dGd|edB AGE|
~G3 dGG|edB def|gfe dBA|B2e dBA:|
|:~g3 bge|~f3 afd|~g3 bge|edB GBd|
gfg bge|f2g aga|bag agf|efg edB:|